src/assets/icons/undo.svg

<svg widh="100%" height="100%" viewBox="0 0 24 24" fill="current"
  xmlns="http://www.w3.org/2000/svg">
  <path d="M20.9953 17.2594C20.9953 16.4719 21.1641 13.3641 18.7125 10.8984C17.0625 9.23906 14.9484 8.39531 11.9953 8.26406V4.5L3 10.5L12 16.5V12.7594C13.875 12.8109 14.925 13.1859 16.0641 13.6969C17.5125 14.3438 18.6562 15.7594 19.6172 17.2875L20.5172 18.75H21C21 18.2766 20.9953 17.6766 20.9953 17.2594Z" />
</svg>

<svg xmlns="http://www.w3.org/2000/svg" fill="currentColor" viewBox="0 0 24 24">
  <path d="M20.995 17.26c0-.788.17-3.896-2.283-6.362-1.65-1.659-3.764-2.503-6.717-2.634V4.5L3 10.5l9 6v-3.74c1.875.05 2.925.426 4.064.937 1.448.647 2.592 2.062 3.553 3.59l.9 1.463H21c0-.473-.005-1.073-.005-1.49Z"/>
</svg>
